src/shared/assets/icons/stelselpedia.svg

<?xml version="1.0" encoding="UTF-8"?>
<svg width="26px" height="26px" viewBox="0 0 26 26" version="1.1" xmlns="http://www.w3.org/2000/svg" xmlns:xlink="http://www.w3.org/1999/xlink">
    <g id="Styleguide" stroke="none" stroke-width="1" fill="none" fill-rule="evenodd">
        <g id="icoon-uitleg">
            <path d="M12.5332155,16.4800562 C13.5080536,16.4800562 14.2927327,17.2636016 14.2927327,18.2394817 C14.2927327,19.214269 13.5080536,20 12.5332155,20 C11.5572846,20 10.7736984,19.214269 10.7736984,18.2394817 C10.7736984,17.2636016 11.5572846,16.4800562 12.5332155,16.4800562 L12.5332155,16.4800562 Z M11.099373,14.5676372 C11.099373,13.8026696 11.2906249,13.3043478 11.7682081,12.8475529 C13.182379,11.489189 14.2162319,10.8564515 14.2162319,9.97673874 C14.2162319,9.13636718 13.6228047,8.63913824 12.8381256,8.63913824 C11.653457,8.63913824 11.0228723,9.40410585 10.9463715,10.3417376 L8,10.1494029 C8.26775261,7.45234564 10.1223492,6 12.7812965,6 C15.1156621,6 17.0850098,7.30044493 17.0850098,9.76691905 C17.0850098,11.2214503 16.5309259,12.1011631 14.7134867,13.5349309 C14.1200595,13.9928187 13.9670581,14.4343143 13.9670581,14.8539536 L13.9670581,15.4091016 L11.099373,15.4091016 L11.099373,14.5676372 L11.099373,14.5676372 Z" id="Fill-2" fill="#000000"></path>
        </g>
    </g>
</svg>

<svg width="26" height="26" xmlns="http://www.w3.org/2000/svg"><path d="M12.533 16.48c.975 0 1.76.784 1.76 1.76 0 .974-.785 1.76-1.76 1.76-.976 0-1.76-.786-1.76-1.76 0-.976.784-1.76 1.76-1.76zM11.1 14.568c0-.765.192-1.264.67-1.72 1.413-1.359 2.447-1.992 2.447-2.871 0-.84-.593-1.338-1.378-1.338-1.185 0-1.815.765-1.892 1.703L8 10.149C8.268 7.452 10.122 6 12.781 6c2.335 0 4.304 1.3 4.304 3.767 0 1.454-.554 2.334-2.372 3.768-.593.458-.746.9-.746 1.319v.555H11.1v-.841z" fill="#000" fill-rule="evenodd"/></svg>
